icons/netlify.svg

<svg xmlns="http://www.w3.org/2000/svg" viewBox="0 0 16 16"><path fill="#05bdba" d="m15.9 7.1-.2-.2L9.2.3 8.9.1 8.6 0H7.3l-.2.1-.3.2L.3 6.8l-.2.3-.1.3v1.3l.1.3.2.2 6.5 6.5.2.2.4.1h1.3l.3-.1.2-.2 6.5-6.5.2-.2.1-.3V7.4zM7.4 1.5l1.1-.1.1.1v3.1l-.1.1h-1l-.1-.1zm-6.2 7v-1l.1-.1h3.5l.1.1v1l-.2.1zm4.5 2.8-.9.9h-.1l-.7-.7v-.1l.9-.9h.7l.1.1zm0-5.8-.1.1h-.7L4 4.7v-.2l.7-.7h.1l.9.9zm2.9 9-1.1.1-.1-.1v-3.1l.1-.1h1l.1.1zM10 10l-1.1.1-.1-.1V7.7c0-.4-.2-.7-.7-.7h-.9v3l-.1.1h-1V6h2.3c.8 0 1.6.7 1.6 1.5zm4.8-1.5-3.6.1-.1-.1v-1l.1-.1h3.5l.1.1z" data-iconColor="Netlify"/></svg>

<!--
  - The MIT License (MIT)
  -
  - Copyright (c) 2015-2024 Elior "Mallowigi" Boukhobza
  -
  - Permission is hereby granted, free of charge, to any person obtaining a copy
  - of this software and associated documentation files (the "Software"), to deal
  - in the Software without restriction, including without limitation the rights
  - to use, copy, modify, merge, publish, distribute, sublicense, and/or sell
  - copies of the Software, and to permit persons to whom the Software is
  - furnished to do so, subject to the following conditions:
  -
  - The above copyright notice and this permission notice shall be included in all
  - copies or substantial portions of the Software.
  -
  - THE SOFTWARE IS PROVIDED "AS IS", WITHOUT WARRANTY OF ANY KIND, EXPRESS OR
  - IMPLIED, INCLUDING BUT NOT LIMITED TO THE WARRANTIES OF MERCHANTABILITY,
  - FITNESS FOR A PARTICULAR PURPOSE AND NONINFRINGEMENT. IN NO EVENT SHALL THE
  - AUTHORS OR COPYRIGHT HOLDERS BE LIABLE FOR ANY CLAIM, DAMAGES OR OTHER
  - LIABILITY, WHETHER IN AN ACTION OF CONTRACT, TORT OR OTHERWISE, ARISING FROM,
  - OUT OF OR IN CONNECTION WITH THE SOFTWARE OR THE USE OR OTHER DEALINGS IN THE
  - SOFTWARE.
  -
  -->

<svg version="1.1" xmlns="http://www.w3.org/2000/svg" viewBox="0 0 16 16" width="16" height="16">
  <path data-iconColor="Netlify" fill="#05bdba" d="M15.9,7.1l-0.2-0.2h0L9.2,0.3L8.9,0.1L8.6,0H7.3L7.1,0.1L6.8,0.3L0.3,6.8L0.1,7.1L0,7.4v1.3l0.1,0.3l0.2,0.2
	l6.5,6.5l0.2,0.2L7.4,16h1.3l0.3-0.1l0.2-0.2l6.5-6.5l0.2-0.2L16,8.7V7.4L15.9,7.1z M7.4,1.5L7.4,1.5l1.1-0.1l0.1,0.1v3.1L8.5,4.7
	h-1L7.4,4.6V1.5z M1.2,8.5v-1l0.1-0.1h3.5l0.1,0.1v1L4.7,8.6L1.2,8.5L1.2,8.5z M5.7,11.3l-0.9,0.9H4.7L4,11.5v-0.1l0.9-0.9h0.7
	l0.1,0.1V11.3z M5.7,5.5L5.6,5.6H4.9L4,4.7V4.5l0.7-0.7h0.1l0.9,0.9V5.5z M8.6,14.5L8.6,14.5l-1.1,0.1l-0.1-0.1v-3.1l0.1-0.1h1
	l0.1,0.1V14.5z M10,10L10,10L10,10l-1.1,0.1L8.8,10V7.7c0-0.4-0.2-0.7-0.7-0.7c-0.3,0-0.5,0-0.9,0L7.2,7v3l-0.1,0.1h-1L6.1,10V6
	L6.2,6h2.2C9.2,6,10,6.7,10,7.5V10z M14.8,8.5L14.8,8.5l-3.6,0.1l-0.1-0.1v-1l0.1-0.1h3.5l0.1,0.1V8.5z"/>
</svg>
